X: 10523
T: CRAZY JANE -- REEL
R: reel
B: K\"ohler's Violin Repository, v.1, 1885 p.52 #3
F: http://www.archive.org/details/klersviolinrepos01edin
Z: 2011 John Chambers <jc:trillian.mit.edu>
M: C|
L: 1/8
K: A
u=G |\
(F/E/D) (CD) EA,A,A | GBAc BEEd | (c/B/A) (eA) (fA) (gA) | (a/g/f/e/) (fd) cAA :|
|: ue |\
aece Aece | afdf Bfdf | aece Aece | EFAB cAAe |
aece Aece | afdf Bfdf | afge fdec | (A/B/c/d/) (ed) cAA "^D.C."|]

%%sep 2 1 500

